!!!COM: Beethoven, Ludwig van
!!!CDT: 1770///-1827///
!!!ODT: 1798///-1800///
!!!OTL: String Quartet No. 6 in B-flat Major, Op. 18, No. 6
!!!OPS: Op. 18
!!!ONM: No. 6
!!!OMV: Mvmt. 4b
!!!OMD: Allegretto quasi Allegro
!!!PDT: 1801///
!!!PPP: Vienna
!!!PPR: C. Haslinger qm Tobias
!!!ODE: Dem F&uuml;rsten von Lobkowitz gewidmet
!!!MPD: 1798///-1800///
**kern	**dynam	**kern	**dynam	**kern	**dynam	**kern	**dynam
*staff4	*staff4	*staff3	*staff3	*staff2	*staff2	*staff1	*staff1
*Icello	*Icello	*Iviola	*Iviola	*Ivioln	*Ivioln	*Ivioln	*Ivioln
*clefF4	*clefF4	*clefC3	*clefC3	*clefG2	*clefG2	*clefG2	*clefG2
*k[b-e-]	*k[b-e-]	*k[b-e-]	*k[b-e-]	*k[b-e-]	*k[b-e-]	*k[b-e-]	*k[b-e-]
*B-:	*B-:	*B-:	*B-:	*B-:	*B-:	*B-:	*B-:
*M3/8	*M3/8	*M3/8	*M3/8	*M3/8	*M3/8	*M3/8	*M3/8
*MM110	*MM110	*MM110	*MM110	*MM110	*MM110	*MM110	*MM110
16r	.	16r	.	16r	.	(16f/LL	p
8r	.	8r	.	8r	.	16dd/)	.
.	.	.	.	.	.	16cc/JJ	.
=1	=1	=1	=1	=1	=1	=1	=1
8BB-/	p	8F/	p	8B-/ 8d/	p	(16b-\LL	.
.	.	.	.	.	.	16a\)	.
4FF/	.	4F/	.	4B-/ 4d/	.	16b-\	.
.	.	.	.	.	.	16cc\	.
.	.	.	.	.	.	16dd\	.
.	.	.	.	.	.	16ee-\JJ	.
=2	=2	=2	=2	=2	=2	=2	=2
8AA/	.	8F/	.	8c/ 8e-/	.	(16cc\LL	.
.	.	.	.	.	.	16bn\)	.
4FF/	.	4F/	.	4c/ 4e-/	.	16cc\	.
.	.	.	.	.	.	16f\	.
.	.	.	.	.	.	16ee-\	.
.	.	.	.	.	.	16dd\JJ	.
=3	=3	=3	=3	=3	=3	=3	=3
4.r	.	8A/L	p	(8c/L	p	(16cc\LL	p
.	.	.	.	.	.	16bn\)	.
.	.	8G/	.	8B-/	.	16cc\	.
.	.	.	.	.	.	16dd\	.
.	.	8F/J	.	8A/J	.	16ee-\	.
.	.	.	.	.	.	16ff\JJ	.
=4	=4	=4	=4	=4	=4	=4	=4
4.r	.	8B-\L	.	8d/L	.	(16dd\LL	.
.	.	.	.	.	.	16b-\)	.
.	.	8c\	.	8e-/	.	16bb-\	.
.	.	.	.	.	.	16b-\	.
.	.	8d\J	.	8f/J)	.	16bb-\	.
.	.	.	.	.	.	16aa-\JJ	.
=5	=5	=5	=5	=5	=5	=5	=5
4.r	.	8e-/L	.	(8g/L	.	(16aa-\LL	.
.	.	.	.	.	.	16gg\)	.
.	.	8A/	.	8c/	.	16gg\	.
.	.	.	.	.	.	16ff#\	.
.	.	8Bn/J	.	8d/J	.	16gg\	.
.	.	.	.	.	.	16ff\JJ	.
=6	=6	=6	=6	=6	=6	=6	=6
4.r	.	8c/L	.	8e-/L	.	(16ff\LL	.
.	.	.	.	.	.	16ee-\)	.
.	.	8F#/	.	8A/	.	16ee-\	.
.	.	.	.	.	.	16dd\	.
.	.	8G/J	.	8B-/J)	.	16ee-\	.
.	.	.	.	.	.	16dd\JJ	.
=7	=7	=7	=7	=7	=7	=7	=7
4.r	.	8E-/L	.	(8G/L	.	(16cc\LL	.
.	.	.	.	.	.	16gg\)	.
.	.	8C/	.	8e-/	.	16ff\	.
.	.	.	.	.	.	16ee-\	.
.	.	8E-/J	.	8g/J)	.	16dd\	.
.	.	.	.	.	.	16cc\JJ	.
=8	=8	=8	=8	=8	=8	=8	=8
4.r	.	4F/	.	4c/	.	(16b-/LL	.
.	.	.	.	.	.	16a/)	.
.	.	.	.	.	.	16g/	.
.	.	.	.	.	.	16f/	.
.	.	8r	.	8r	.	16dd/	.
.	.	.	.	.	.	16cc/JJ	.
=9	=9	=9	=9	=9	=9	=9	=9
8BB-/	.	8F/ 8d/	.	8B-/ 8f/	.	(16b-\LL	.
.	.	.	.	.	.	16a\)	.
4FF/	.	4F/ 4d/	.	4B-/ 4f/	.	16b-\	.
.	.	.	.	.	.	16cc\	.
.	.	.	.	.	.	16dd\	.
.	.	.	.	.	.	16ee-\JJ	.
=10	=10	=10	=10	=10	=10	=10	=10
8AA/	.	8F/ 8e-/	.	8c/ 8f/	.	(16cc\LL	.
.	.	.	.	.	.	16bn\)	.
4FF/	.	4F/ 4e-/	.	4c/ 4f/	.	16cc\	.
.	.	.	.	.	.	16f\	.
.	.	.	.	.	.	16ee-\	.
.	.	.	.	.	.	16dd\JJ	.
=11	=11	=11	=11	=11	=11	=11	=11
8A\L	p	4.r	.	(8c/L	p	(16cc\LL	p
.	.	.	.	.	.	16bn\)	.
8G\	.	.	.	8B-/	.	16cc\	.
.	.	.	.	.	.	16dd\	.
8F\J	.	.	.	8A/J	.	16ee-\	.
.	.	.	.	.	.	16ff\JJ	.
=12	=12	=12	=12	=12	=12	=12	=12
8BB-/L	.	8B-/L	p	8d/L	.	(16dd\LL	.
.	.	.	.	.	.	16b-\)	.
8C/	.	8B-/	.	8e-/	.	16bb-\	.
.	.	.	.	.	.	16b-\	.
8D/J	.	8B-/J	.	8f/J)	.	16bb-\	.
.	.	.	.	.	.	16aa-\JJ	.
=13	=13	=13	=13	=13	=13	=13	=13
8E-/L	.	8B-\L	.	8g/L	.	(16aa-\LL	.
.	.	.	.	.	.	16gg\)	.
8AA/	.	8e-\	.	(8g/	.	16gg\	.
.	.	.	.	.	.	16ff#\	.
8BBn/J	.	[8d\J	.	[8f/J)	.	16gg\	.
.	.	.	.	.	.	16ff\JJ	.
=14	=14	=14	=14	=14	=14	=14	=14
8C\L	.	8d\L]	.	(8f/L]	.	(16ff\LL	.
.	.	.	.	.	.	16ee-\)	.
8F#\	.	8c\	.	8e-/	.	16ee-\	.
.	.	.	.	.	.	16dd\	.
8G\J	.	8B-\J	.	8d/J)	.	16ee-\	.
.	.	.	.	.	.	16dd\JJ	.
=15	=15	=15	=15	=15	=15	=15	=15
8E-\L	.	8G/L	.	(8c/L	.	(16cc\LL	.
.	.	.	.	.	.	16gg\)	.
8C\	.	8G/	.	8e-/)	.	16ff\	.
.	.	.	.	.	.	16ee-\	.
8F\J	.	8A/J	.	8e-/J	.	16dd\	.
.	.	.	.	.	.	16cc\JJ	.
=16	=16	=16	=16	=16	=16	=16	=16
8BB-\L	.	4B-/	.	4d/	.	4b-\	.
16r	.	.	.	.	.	.	.
16D\L	.	.	.	.	.	.	.
16d\	.	8r	.	8r	.	8r	.
16c\JJ	.	.	.	.	.	.	.
=17	=17	=17	=17	=17	=17	=17	=17
16c\LL	.	4.r	.	4.r	.	4.r	.
16B-\	.	.	.	.	.	.	.
16B-\	.	.	.	.	.	.	.
16A\	.	.	.	.	.	.	.
16G\	.	.	.	.	.	.	.
16F\JJ	.	.	.	.	.	.	.
=18	=18	=18	=18	=18	=18	=18	=18
8F\L	.	4.r	.	4.r	.	8r	.
8En\J	.	.	.	.	.	16r	.
.	.	.	.	.	.	(16g\LL	.
8r	.	.	.	.	.	16gg\	.
.	.	.	.	.	.	16ff\JJ)	.
=19	=19	=19	=19	=19	=19	=19	=19
8C/L	.	8c\L	.	8en/L	.	(16ff\LL	.
.	.	.	.	.	.	16een\)	.
8En/	.	8c\	.	8g/	.	16dd\	.
.	.	.	.	.	.	16cc\	.
8C/J	.	8c\J	.	8en/J	.	16dd\	.
.	.	.	.	.	.	16g\JJ	.
=20	=20	=20	=20	=20	=20	=20	=20
8F\	.	8c\L	.	4c/	.	(8b-/L	.
8r	.	16r	.	.	.	8a/J)	.
.	.	16A\L	.	.	.	.	.
8r	.	16a\	.	8r	.	8r	.
.	.	16g\JJ	.	.	.	.	.
=21	=21	=21	=21	=21	=21	=21	=21
8r	.	16g\LL	.	4.r	.	4.r	.
.	.	16f\	.	.	.	.	.
8D\L	.	16f\	.	.	.	.	.
.	.	16en\	.	.	.	.	.
8F\J	.	16d\	.	.	.	.	.
.	.	16c\JJ	.	.	.	.	.
=22	=22	=22	=22	=22	=22	=22	=22
4G\	.	8c/L	.	4.r	.	8r	.
.	.	8Bn/J	.	.	.	16r	.
.	.	.	.	.	.	(16dd\LL	.
8r	.	8r	.	.	.	16ddd\	.
.	.	.	.	.	.	16ccc\JJ)	.
=23	=23	=23	=23	=23	=23	=23	=23
8G\L	.	8g\L	.	8bn\L	.	(16ccc\LL	.
.	.	.	.	.	.	16bbn\)	.
8Bn\	.	8g\	.	8dd\	.	16aa\	.
.	.	.	.	.	.	16gg\	.
8G\J	.	8g\J	.	8bn\J	.	16aa\	.
.	.	.	.	.	.	16ff\JJ	.
=24	=24	=24	=24	=24	=24	=24	=24
8c\L	.	8g\L	.	8g\L	.	16een\LL	.
.	.	.	.	.	.	(16gg\	.
8r	.	8r	.	8r	.	16ff#\)	.
.	.	.	.	.	.	(16gg\	.
8Bn\J	.	[8g\J	.	(8dd\J	.	16ff\)	.
.	.	.	.	.	.	(16gg\JJ	.
=25	=25	=25	=25	=25	=25	=25	=25
8c\L	.	8g\L]	.	8cc\L)	.	16een\LL)	.
.	.	.	.	.	.	(16gg\	.
8r	.	8r	.	8r	.	16ff#\)	.
.	.	.	.	.	.	(16gg\	.
8Bn\J	.	[8g\J	.	(8dd\J	.	16ff\)	.
.	.	.	.	.	.	(16gg\JJ	.
=26	=26	=26	=26	=26	=26	=26	=26
8c\	.	8g\]	.	8cc\)	.	16een\LL)	.
.	.	.	.	.	.	(16gg\	.
8r	.	8r	.	8r	.	16een\	.
.	.	.	.	.	.	16cc\	.
8r	.	8r	.	8r	.	16g\	.
.	.	.	.	.	.	16f\JJ)	.
=27	=27	=27	=27	=27	=27	=27	=27
8r	.	8r	.	8r	.	16en/LL	.
.	.	.	.	.	.	(16g/	.
8r	.	8r	.	8r	.	16f#/)	.
.	.	.	.	.	.	(16g/	.
8BBn/	.	[8G/	.	(8d/	.	16f/)	.
.	.	.	.	.	.	(16g/JJ	.
=28	=28	=28	=28	=28	=28	=28	=28
8C/L	.	8G/L]	.	8c/L)	.	16en/LL)	.
.	.	.	.	.	.	(16g/	.
8r	.	8r	.	8r	.	16f#/)	.
.	.	.	.	.	.	(16g/	.
8BBn/J	.	[8G/J	.	(8d/J	.	16f/)	.
.	.	.	.	.	.	(16g/JJ	.
=29	=29	=29	=29	=29	=29	=29	=29
8C/L	.	8G/L]	.	8c/L)	.	16en/LL)	.
.	.	.	.	.	.	(16g/	.
8r	.	8r	.	8r	.	16f#/)	.
.	.	.	.	.	.	(16g/	.
8BBn/J	.	[8G/J	.	(8d/J	.	16f/)	.
.	.	.	.	.	.	(16g/JJ	.
=30	=30	=30	=30	=30	=30	=30	=30
8C/	.	8G/]	.	8c/)	.	16en/LL)	.
.	.	.	.	.	.	(16d/	.
8r	.	8r	.	8r	.	16c/	.
.	.	.	.	.	.	16d/	.
8r	.	8r	.	8r	.	16en/	.
.	.	.	.	.	.	16f/JJ	.
=31	=31	=31	=31	=31	=31	=31	=31
4.r	.	4.r	.	(16en/LL	.	16g/LL	.
.	.	.	.	16d/	.	16f/	.
.	.	.	.	16c/	.	16en/	.
.	.	.	.	16d/	.	16f/	.
.	.	.	.	16en/	.	16g/	.
.	.	.	.	16f/JJ	.	16a/JJ	.
=32	=32	=32	=32	=32	=32	=32	=32
4.r	.	4.r	.	16g/LL	.	16b-/LL	.
.	.	.	.	16f/	.	16a/	.
.	.	.	.	16en/	.	16g/	.
.	.	.	.	16f/	.	16a/	.
.	.	.	.	16g/	.	16b-/	.
.	.	.	.	16a/JJ)	.	16cc/JJ)	.
=33	=33	=33	=33	=33	=33	=33	=33
4.En\	.	[4.c\	p	(16b-/LL	p	(16dd\LL	p
.	.	.	.	16a/	<	16cc#\	<
.	.	.	.	16cc/	.	16een\	.
.	.	.	.	16b-/	.	16dd\	.
.	.	.	.	16a/	>	16cc\	>
.	.	.	.	16g/JJ)	.	16b-\JJ)	.
=34	=34	=34	=34	=34	=34	=34	=34
4F\	.	16c/LL]	.	4f/	.	4a/	.
.	.	16Bn/	<	.	.	.	.
.	.	16c/	.	.	.	.	.
.	.	16Bn/	.	.	.	.	.
8r	.	16c/	>	8r	.	8r	.
.	.	16Bn/JJ	.	.	.	.	.
=35	=35	=35	=35	=35	=35	=35	=35
4.En\	.	[4.c\	.	(16b-/LL	.	(16dd\LL	.
.	.	.	.	16a/	.	16cc#\	.
.	.	.	.	16cc/	.	16een\	.
.	.	.	.	16b-/	.	16dd\	.
.	.	.	.	16a/	.	16cc\	.
.	.	.	.	16g/JJ)	.	16b-\JJ)	.
=36	=36	=36	=36	=36	=36	=36	=36
4F\	.	16c/LL]	.	4f/	.	4a/	.
.	.	16Bn/	.	.	.	.	.
.	.	16c/	.	.	.	.	.
.	.	16Bn/	.	.	.	.	.
8r	.	16c/	.	8r	.	8r	.
.	.	16Bn/JJ	.	.	.	.	.
=37	=37	=37	=37	=37	=37	=37	=37
4.En\	.	[4.c\	.	(16b-/LL	.	(16dd\LL	.
.	.	.	.	16a/	.	16cc#\	.
.	.	.	.	16cc/	.	16ee#\	.
.	.	.	.	16b-/	.	16dd\	.
.	.	.	.	16a/)	.	16cc\	.
.	.	.	.	16g/JJ	.	16b-\JJ)	.
=38	=38	=38	=38	=38	=38	=38	=38
8F\L	.	8c/L]	.	8f/L	.	(16a\LL	.
.	.	.	.	.	.	16ff\)	.
8r	.	8r	.	8r	.	16cc\	.
.	.	.	.	.	.	16a\	.
8BB-\J	.	8B-/J	.	8d/J	.	16g\	.
.	.	.	.	.	.	16dd\JJ	.
=39	=39	=39	=39	=39	=39	=39	=39
8C/L	.	8A/L	.	8c/L	.	(16f/LL	.
.	.	.	.	.	.	16cc/)	.
8r	.	8r	.	8r	.	16a/	.
.	.	.	.	.	.	16f/	.
8CC/J	.	8G/J	.	8B-/J	.	16c/	.
.	.	.	.	.	.	16en/JJ	.
=40	=40	=40	=40	=40	=40	=40	=40
8FF/	.	16F/LL	.	8A/	.	8f/	.
.	.	16G/	.	.	.	.	.
8r	.	16A/	.	8r	.	8r	.
.	.	16B-/	.	.	.	.	.
8r	.	16c/	.	8r	.	8r	.
.	.	16c#/JJ	.	.	.	.	.
=41	=41	=41	=41	=41	=41	=41	=41
16B-\LL	p	16d\LL	p	8en/L	p	[4.ccc\	p
16A\	<	16c#\	<	.	.	.	.
16c\	.	16en\	.	8r	.	.	.
16B-\	.	16d\	.	.	.	.	.
16A\	>	16c\	>	(8een/J	.	.	.
16G\JJ	.	16B-\JJ	.	.	.	.	.
=42	=42	=42	=42	=42	=42	=42	=42
4F\	.	4A/	.	8ff\L)	.	(16ccc\LL]	.
.	.	.	.	.	.	16bbn\	<
.	.	.	.	8r	.	16ccc\	.
.	.	.	.	.	.	16bbn\	.
8r	.	8r	.	(8f\J	.	16ccc\	>
.	.	.	.	.	.	16bbn\JJ)	.
=43	=43	=43	=43	=43	=43	=43	=43
16B-\LL	.	16d\LL	.	8en/L)	.	[4.ccc\	.
16A\	.	16c#\	.	.	.	.	.
16c\	.	16en\	.	8r	.	.	.
16B-\	.	16d\	.	.	.	.	.
16A\	.	16c\	.	(8een/J	.	.	.
16G\JJ	.	16B-\JJ	.	.	.	.	.
=44	=44	=44	=44	=44	=44	=44	=44
4F\	.	4A/	.	8ff\L)	.	(16ccc\LL]	.
.	.	.	.	.	.	16bbn\	.
.	.	.	.	8r	.	16ccc\	.
.	.	.	.	.	.	16bbn\	.
8r	.	8r	.	(8f\J	.	16ccc\	.
.	.	.	.	.	.	16bbn\JJ)	.
=45	=45	=45	=45	=45	=45	=45	=45
16B-\LL	.	16d\LL	.	8en/L)	.	[4.ccc\	.
16A\	.	16c#\	.	.	.	.	.
16c\	.	16en\	.	8r	.	.	.
16B-\	.	16d\	.	.	.	.	.
16A\	.	16c\	.	(8een/J	.	.	.
16G\JJ	.	16B-\JJ	.	.	.	.	.
=46	=46	=46	=46	=46	=46	=46	=46
16F\LL	<	16A\LL	<	4ff\)	.	4ccc\]	.
16G\	<	16B-\	<	.	.	.	.
16A\	.	16c\	.	.	.	.	.
16B-\	.	16d\	.	.	.	.	.
16c\	.	16en\	.	8r	.	8r	.
16d\JJ	.	16f\JJ	.	.	.	.	.
=47	=47	=47	=47	=47	=47	=47	=47
8en\L	.	8g\L	.	8r	.	4.r	.
8en\	.	8g\	.	8c/L	<	.	.
8e-\J	.	8a\J	.	8f/J	.	.	.
=48	=48	=48	=48	=48	=48	=48	=48
4.d\	.	[4.b-\	.	[4.f/	.	4.r	.
=49	=49	=49	=49	=49	=49	=49	=49
4.d-\	>	4.b-\]	>	4.f/]	>	(16bb-\LL	p
.	.	.	.	.	.	16ccc\	.
.	.	.	.	.	.	16ddd-\	.
.	.	.	.	.	.	16eee-\	.
.	.	.	.	.	.	16fff\	.
.	.	.	.	.	.	16ggg\JJ)	.
=50	=50	=50	=50	=50	=50	=50	=50
8C\L	p	4f\	p	(4a-/	p	(4aaa-\	.
8c\J	.	.	.	.	.	.	.
8r	.	8a-\	.	8cc\)	.	8fff\)	.
=51	=51	=51	=51	=51	=51	=51	=51
8C\L	.	4g\	.	(4b-\	.	(4eeen\	.
8c\J	.	.	.	.	.	.	.
8r	.	8b-\	.	8cc\)	.	8ggg\)	.
=52	=52	=52	=52	=52	=52	=52	=52
16FF/LL	<	8r	.	(16A/LL	<	4.r	.
16GG/	.	.	.	16B-/	<	.	.
16AA/	.	16C/LL	<	16c/	.	.	.
16BB-/	.	16D/	.	16d/	.	.	.
16C/	.	16En/	.	16en/	.	.	.
16D/JJ	.	16F/JJ	.	16f/JJ)	.	.	.
=53	=53	=53	=53	=53	=53	=53	=53
8En\L	.	8G/L	.	8g/L	.	4.r	.
8En\	.	8c/	.	8g/	.	.	.
8E-\J	.	8c/J	.	8a/J	.	.	.
=54	=54	=54	=54	=54	=54	=54	=54
4.D\	p	4.d\ 4.f\	p	4.b-\	p	4.r	.
=55	=55	=55	=55	=55	=55	=55	=55
4.F\	.	4.a-\	.	(4.d/ 4.bn/	.	(16dd\LL	f
.	.	.	.	.	.	16een\	.
.	.	.	.	.	.	16ff\	.
.	.	.	.	.	.	16gg\	.
.	.	.	.	.	.	16aa\	.
.	.	.	.	.	.	16bbn\JJ)	.
=56	=56	=56	=56	=56	=56	=56	=56
4.C/	p	4.a\	p	&(4.f/&)) 4.cc/	p	4.ccc\	p
=57	=57	=57	=57	=57	=57	=57	=57
4.BBn/	.	4.a-\	.	4.f/ 4.dd/	.	(16ddd\LL	.
.	.	.	.	.	.	16ccc#\	.
.	.	.	.	.	.	16ddd\	.
.	.	.	.	.	.	16eeen\	.
.	.	.	.	.	.	16fff\)	.
.	.	.	.	.	.	16ggg\JJ	.
=58	=58	=58	=58	=58	=58	=58	=58
8C\L	p	4a\	p	(4f/	p	(4aaa\	p
8c\J	.	.	.	.	.	.	.
8r	.	8cc\	.	8a/)	.	8fff\)	.
=59	=59	=59	=59	=59	=59	=59	=59
8C\L	.	4b-\	.	(4g/	.	(4eeen\	.
8c\J	.	.	.	.	.	.	.
8r	.	8cc\	.	8b-\)	.	8ggg\)	.
=60	=60	=60	=60	=60	=60	=60	=60
8FF/L	.	8a\L	.	8c/L	.	8fff\L	.
8r	.	8A\J	.	8c/J	.	16r	.
.	.	.	.	.	.	(16c\L	.
8F/J	.	8r	.	8r	.	16a\)	.
.	.	.	.	.	.	16g\JJ	.
=61	=61	=61	=61	=61	=61	=61	=61
8FF/L	.	8r	.	8r	.	(16f/LL	.
.	.	.	.	.	.	16en/)	.
8r	.	8A/	.	8c/	.	16f/	.
.	.	.	.	.	.	16g/	.
8F/J	.	8r	.	8r	.	16a/	.
.	.	.	.	.	.	16b-/JJ	.
=62	=62	=62	=62	=62	=62	=62	=62
8FF/L	.	8r	.	8r	.	(16g/LL	.
.	.	.	.	.	.	16f#/)	.
8r	.	8B-/	.	8en/	.	16g/	.
.	.	.	.	.	.	16c/	.
8F/J	.	8r	.	8r	.	16b-/	.
.	.	.	.	.	.	16a/JJ	.
=63	=63	=63	=63	=63	=63	=63	=63
8FF/L	.	8r	.	8r	.	(16g/LL	.
.	.	.	.	.	.	16f#/)	.
8r	.	8B-/	.	8en/	.	16g/	.
.	.	.	.	.	.	16a/	.
8F/J	.	8r	.	8r	.	16b-/	.
.	.	.	.	.	.	16cc/JJ	.
=64	=64	=64	=64	=64	=64	=64	=64
8FF/L	<	8r	<	8r	<	(16a/LL	<
.	.	.	.	.	.	16g#/)	<
8r	<	8c\	<	8e-/	<	16a/	.
.	.	.	.	.	.	16f/	.
8F/J	.	8r	.	8r	.	16cc/	.
.	.	.	.	.	.	16b-/JJ	.
=65	=65	=65	=65	=65	=65	=65	=65
8FF/L	.	8r	.	8r	.	(16a/LL	.
.	.	.	.	.	.	16g#/)	.
8r	.	8c\	.	8e-/	.	16a/	.
.	.	.	.	.	.	16b-/	.
8F/J	.	8r	.	8r	.	16cc/	.
.	.	.	.	.	.	16dd/JJ	.
=66	=66	=66	=66	=66	=66	=66	=66
8FF/L	.	8r	.	8r	.	(16b-/LL	.
.	.	.	.	.	.	16a/)	.
8r	.	8B-/	.	8d/	.	16b-/	.
.	.	.	.	.	.	16f/	.
8F/J	.	8r	.	8r	.	16dd/	.
.	.	.	.	.	.	16cc/JJ	.
=67	=67	=67	=67	=67	=67	=67	=67
8FF/L	.	8r	.	8r	.	(16b-\LL	.
.	.	.	.	.	.	16a\)	.
8r	.	8d\	.	8B-/ 8f/	.	16b-\	.
.	.	.	.	.	.	16cc\	.
8F/J	.	8r	.	8r	.	16dd\	.
.	.	.	.	.	.	16ee-\JJ	.
=68	=68	=68	=68	=68	=68	=68	=68
8FF/L	.	8r	.	8r	.	(16cc\LL	f
.	.	.	.	.	.	16f\)	.
8r	.	8F/ 8c/	f	8e-/ 8a/	f	16ee-\	.
.	.	.	.	.	.	16dd\	.
8F/J	f	8r	.	8r	.	16cc\	.
.	.	.	.	.	.	16f\JJ	.
=69	=69	=69	=69	=69	=69	=69	=69
4.r	.	4.r	.	4.r	.	16ee-\LL	.
.	.	.	.	.	.	16dd\	.
.	.	.	.	.	.	16cc\	.
.	.	.	.	.	.	16f\	.
.	.	.	.	.	.	16ee-\	.
.	.	.	.	.	.	16dd\JJ	.
=70	=70	=70	=70	=70	=70	=70	=70
4.r	.	4.r	.	4.r	.	16cc\LL	.
.	.	.	.	.	.	16f\	.
.	.	.	.	.	.	16ee-\	.
.	.	.	.	.	.	16dd\	.
.	.	.	.	.	.	16cc\	.
.	.	.	.	.	.	16f\JJ	.
=71	=71	=71	=71	=71	=71	=71	=71
4.r	.	4.r	.	4.r	.	16ee-\LL	pp
.	.	.	.	.	.	16dd\	.
.	.	.	.	.	.	16cc\	.
.	.	.	.	.	.	16f\	.
.	.	.	.	.	.	16dd\	.
.	.	.	.	.	.	16cc\JJ	.
=72	=72	=72	=72	=72	=72	=72	=72
8BB-/	pp	8F/	pp	8B-/ 8d/	pp	(16b-\LL	.
.	.	.	.	.	.	16a\)	.
4FF/	.	4F/	.	4B-/ 4d/	.	16b-\	.
.	.	.	.	.	.	16cc\	.
.	.	.	.	.	.	16dd\	.
.	.	.	.	.	.	16ee-\JJ	.
=73	=73	=73	=73	=73	=73	=73	=73
8AA/	.	8F/	.	8c/ 8e-/	.	(16cc\LL	.
.	.	.	.	.	.	16bn\)	.
4FF/	.	4F/	.	4c/ 4e-/	.	16cc\	.
.	.	.	.	.	.	16f\	.
.	.	.	.	.	.	16ee-\	.
.	.	.	.	.	.	16dd\JJ	.
=74	=74	=74	=74	=74	=74	=74	=74
4.r	.	8A/L	p	(8c/L	p	(16cc\LL	p
.	.	.	.	.	.	16bn\)	.
.	.	8G/	.	8B-/	.	16cc\	.
.	.	.	.	.	.	16dd\	.
.	.	8F/J	.	8A/J	.	16ee-\	.
.	.	.	.	.	.	16ff\JJ	.
=75	=75	=75	=75	=75	=75	=75	=75
4.r	.	8B-\L	.	8d/L	.	(16dd\LL	.
.	.	.	.	.	.	16b-\)	.
.	.	8c\	.	8e-/	.	16bb-\	.
.	.	.	.	.	.	16b-\	.
.	.	8d\J	.	8f/J)	.	16bb-\	.
.	.	.	.	.	.	16aa-\JJ	.
=76	=76	=76	=76	=76	=76	=76	=76
4.r	.	8e-/L	.	(8g/L	.	(16aa-\LL	.
.	.	.	.	.	.	16gg\)	.
.	.	8A/	.	8c/	.	16gg\	.
.	.	.	.	.	.	16ff#\	.
.	.	8Bn/J	.	8d/J	.	16gg\	.
.	.	.	.	.	.	16ff\JJ	.
=77	=77	=77	=77	=77	=77	=77	=77
4.r	.	8c/L	.	8e-/L	.	(16ff\LL	.
.	.	.	.	.	.	16ee-\)	.
.	.	8F#/	.	8A/	.	16ee-\	.
.	.	.	.	.	.	16dd\	.
.	.	8G/J	.	8B-/J)	.	16ee-\	.
.	.	.	.	.	.	16dd\JJ	.
=78	=78	=78	=78	=78	=78	=78	=78
4.r	.	8E-/L	.	(8G/L	.	(16cc\LL	.
.	.	.	.	.	.	16gg\)	.
.	.	8C/	.	8e-/	.	16ff\	.
.	.	.	.	.	.	16ee-\	.
.	.	8F/J	.	8g/J)	.	16dd\	.
.	.	.	.	.	.	16cc\JJ	.
=79	=79	=79	=79	=79	=79	=79	=79
4.r	.	4F/	.	4c/	.	(16b-/LL	.
.	.	.	.	.	.	16a/)	.
.	.	.	.	.	.	16g/	.
.	.	.	.	.	.	16f/	.
.	.	8r	.	8r	.	16dd/	.
.	.	.	.	.	.	16cc/JJ	.
=80	=80	=80	=80	=80	=80	=80	=80
8BB-/	.	8F/ 8d/	.	8B-/ 8f/	.	(16b-\LL	.
.	.	.	.	.	.	16a\)	.
4FF/	.	4E-/	.	4B-/ 4f/	.	16b-\	.
.	.	.	.	.	.	16cc\	.
.	.	.	.	.	.	16dd\	.
.	.	.	.	.	.	16ee-\JJ	.
=81	=81	=81	=81	=81	=81	=81	=81
8AA/	.	8F/ 8e-/	.	8c/ 8f/	.	(16cc\LL	.
.	.	.	.	.	.	16bn\)	.
4FF/	.	4F/ 4e-/	.	4c/ 4f/	.	16cc\	.
.	.	.	.	.	.	16f\	.
.	.	.	.	.	.	16ee-\	.
.	.	.	.	.	.	16dd\JJ	.
=82	=82	=82	=82	=82	=82	=82	=82
8A\L	p	4.r	.	(8c/L	p	(16cc\LL	p
.	.	.	.	.	.	16bn\)	.
8G\	.	.	.	8B-/	.	16cc\	.
.	.	.	.	.	.	16dd\	.
8F\J	.	.	.	8A/J	.	16ee-\	.
.	.	.	.	.	.	16ff\JJ	.
=83	=83	=83	=83	=83	=83	=83	=83
8BB-/L	.	8B-/L	p	8d/L	.	(16dd\LL	.
.	.	.	.	.	.	16b-\)	.
8C/	.	8B-/	.	8e-/	.	16bb-\	.
.	.	.	.	.	.	16b-\	.
8D/J	.	8B-/J	.	8f/J)	.	16bb-\	.
.	.	.	.	.	.	16aa-\JJ	.
=84	=84	=84	=84	=84	=84	=84	=84
8E-/L	.	8B-\L	.	8g/L	.	(16aa-\LL	.
.	.	.	.	.	.	16gg\)	.
8AA/	.	8e-\	.	8g/	.	16gg\	.
.	.	.	.	.	.	16ff#\	.
8BBn/J	.	[8d\J	.	[8f/J	.	16gg\	.
.	.	.	.	.	.	16ff\JJ	.
=85	=85	=85	=85	=85	=85	=85	=85
8C\L	.	8d\L]	.	(8f/L]	.	(16ff\LL	.
.	.	.	.	.	.	16ee-\)	.
8F#\	.	8c\	.	8e-/	.	16ee-\	.
.	.	.	.	.	.	16dd\	.
8G\J	.	8B-\J	.	8d/J)	.	16ee-\	.
.	.	.	.	.	.	16dd\JJ	.
=86	=86	=86	=86	=86	=86	=86	=86
8E-\L	.	8G/L	.	(8c/L	.	(16cc\LL	.
.	.	.	.	.	.	16gg\)	.
8C\	.	8G/	.	8e-/)	.	16ff\	.
.	.	.	.	.	.	16ee-\	.
8F\J	.	8A/J	.	8e-/J	.	16dd\	.
.	.	.	.	.	.	16cc\JJ	.
=87	=87	=87	=87	=87	=87	=87	=87
8BB-\L	.	8B-/	.	8d/	.	8b-\	.
16r	.	8r	.	8r	.	8r	.
16B-\L	.	.	.	.	.	.	.
16d-\	.	8r	.	8r	.	8r	.
16c\JJ	.	.	.	.	.	.	.
=88	=88	=88	=88	=88	=88	=88	=88
16c\LL	.	4.r	.	4.r	.	4.r	.
16B-\	.	.	.	.	.	.	.
16B-\	.	.	.	.	.	.	.
16A-\	.	.	.	.	.	.	.
16G\	.	.	.	.	.	.	.
16F\JJ	.	.	.	.	.	.	.
=89	=89	=89	=89	=89	=89	=89	=89
8F\L	.	4.r	.	4.r	.	8r	.
8En\J	.	.	.	.	.	16r	.
.	.	.	.	.	.	(16g\LL	.
8r	.	.	.	.	.	16gg\	.
.	.	.	.	.	.	16ff\JJ)	.
=90	=90	=90	=90	=90	=90	=90	=90
8C/L	.	8c\L	.	8en/L	.	(16ff\LL	.
.	.	.	.	.	.	16een\)	.
8En/	.	8c\	.	8g/	.	16dd-\	.
.	.	.	.	.	.	16cc\	.
8C/J	.	8c\J	.	8en/J	.	16dd-\	.
.	.	.	.	.	.	16g\JJ	.
=91	=91	=91	=91	=91	=91	=91	=91
4F\	.	4c\	.	8.f/	.	(8b-/L	.
.	.	.	.	.	.	8a/J)	.
.	.	.	.	(16c/LL	.	.	.
8r	.	8r	.	16cc/	.	8r	.
.	.	.	.	16b-/JJ)	.	.	.
=92	=92	=92	=92	=92	=92	=92	=92
4.r	.	8r	.	(16b-/LL	.	4.r	.
.	.	.	.	16a-/)	.	.	.
.	.	8F/L	.	16a-/	.	.	.
.	.	.	.	16g/	.	.	.
.	.	8A-/J	.	16f/	.	.	.
.	.	.	.	16e-/JJ	.	.	.
=93	=93	=93	=93	=93	=93	=93	=93
4.r	.	4B-/	.	8e-/L	.	8r	.
.	.	.	.	8d/J	.	16r	.
.	.	.	.	.	.	(16ff\LL	.
.	.	8r	.	8r	.	16fff\	.
.	.	.	.	.	.	16eee-\JJ)	.
=94	=94	=94	=94	=94	=94	=94	=94
8BB-/L	.	8d\L	.	8b-\L	.	(16eee-\LL	.
.	.	.	.	.	.	16ddd\)	.
8D/	.	8f\	.	8b-\	.	16ccc\	.
.	.	.	.	.	.	16bb-\	.
8BB-/J	.	8d\J	.	8b-\J	.	16ccc\	.
.	.	.	.	.	.	16aa-\JJ	.
=95	=95	=95	=95	=95	=95	=95	=95
8E-\L	.	8g\L	.	8b-\L	.	16gg\LL	.
.	.	.	.	.	.	(16bb-\	.
8r	.	8r	.	8r	.	16aa\)	.
.	.	.	.	.	.	(16bb-\	.
8d\J	.	[8b-\J	.	(8ff\J	.	16aa-\)	.
.	.	.	.	.	.	(16bb-\JJ	.
=96	=96	=96	=96	=96	=96	=96	=96
8e-\L	.	8b-\L]	.	8ee-\L)	.	16gg\LL)	.
.	.	.	.	.	.	(16bb-\	.
8r	.	8r	.	8r	.	16aa\)	.
.	.	.	.	.	.	(16bb-\	.
8d\J	.	[8b-\J	.	(8ff\J	.	16aa-\)	.
.	.	.	.	.	.	(16bb-\JJ	.
=97	=97	=97	=97	=97	=97	=97	=97
8e-\	.	8b-\]	.	8ee-\)	.	16gg\LL)	.
.	.	.	.	.	.	(16bb-\	.
8r	.	8r	.	8r	.	16gg\	.
.	.	.	.	.	.	16ee-\	.
8r	.	8r	.	8r	.	16b-\	.
.	.	.	.	.	.	16a-\JJ)	.
=98	=98	=98	=98	=98	=98	=98	=98
8r	.	8r	.	8r	.	16g/LL	.
.	.	.	.	.	.	(16b-/	.
8r	.	8r	.	8r	.	16a/)	.
.	.	.	.	.	.	(16b-/	.
8D\	.	[8B-/	.	(8f/	.	16a-/)	.
.	.	.	.	.	.	(16b-/JJ	.
=99	=99	=99	=99	=99	=99	=99	=99
8E-/L	.	8B-\L]	.	8e-\L)	.	16g/LL)	.
.	.	.	.	.	.	(16B-/	.
8r	.	8r	.	8r	.	16A/)	.
.	.	.	.	.	.	(16B-/	.
8BB-/J	.	8d\J	.	(8ff\J	.	16A-/)	.
.	.	.	.	.	.	(16B-/JJ	.
=100	=100	=100	=100	=100	=100	=100	=100
8E-/L	.	8e-\L	.	8gg\L)	.	16G/LL)	<
.	.	.	.	.	.	(16B-/	<
8r	.	8r	.	8r	.	16A/)	.
.	.	.	.	.	.	(16B-/	.
8BB-/J	<	8d\J	<	(8ff\J	<	16A-/)	.
.	.	.	.	.	.	(16B-/JJ	.
=101	=101	=101	=101	=101	=101	=101	=101
8E-/L	<	8e-\L	<	8gg\L)	<	16G/LL)	.
.	.	.	.	.	.	(16g/	.
8r	.	8r	.	8r	.	16f#/)	.
.	.	.	.	.	.	(16g/	.
8GG/J	.	8Bn\J	.	(8dd\J	.	16f/)	.
.	.	.	.	.	.	(16g/JJ	.
=102	=102	=102	=102	=102	=102	=102	=102
16C\LL	.	16c\LL	.	16ee-/LL)	.	16e-\LL)	f
16G\	f	16g\	f	(16g/	f	(16gg\	.
16E-\	.	16e-\	.	16e-/	.	16ee-\	.
16D\	.	16d\	.	16d/	.	16dd\	.
16C\	.	16c\	.	16c/	.	16cc\	.
16BB-\JJ	.	16B-\JJ	.	16B-/JJ)	.	16b-\JJ)	.
=103	=103	=103	=103	=103	=103	=103	=103
4FF/	p	4A/	p	4A/ 4f/	p	(16a/LL	p
.	.	.	.	.	.	16g/	.
.	.	.	.	.	.	16f/	.
.	.	.	.	.	.	16g/	.
8r	.	8r	.	8r	.	16a/	.
.	.	.	.	.	.	16b-/JJ	.
=104	=104	=104	=104	=104	=104	=104	=104
4.r	.	4.r	.	(16a/LL	.	16cc\LL	.
.	.	.	.	16g/	.	16b-\	.
.	.	.	.	16f/	.	16a\	.
.	.	.	.	16g/	.	16b-\	.
.	.	.	.	16a/	.	16cc\	.
.	.	.	.	16b-/JJ	.	16dd\JJ	.
=105	=105	=105	=105	=105	=105	=105	=105
4.r	.	4.r	.	16cc\LL	.	16ee-\LL	.
.	.	.	.	16b-\	.	16dd\	.
.	.	.	.	16a\	.	16cc\	.
.	.	.	.	16b-\	.	16dd\	.
.	.	.	.	16cc\	.	16ee-\	.
.	.	.	.	16dd\JJ	.	16ff\JJ	.
=106	=106	=106	=106	=106	=106	=106	=106
4.A\	p	[4.f\	p	16ee-\LL	.	16gg\LL	.
.	.	.	.	16dd\	<	16ff#\	<
.	.	.	.	16ff\	.	16aa\	.
.	.	.	.	16ee-\	.	16gg\	.
.	.	.	.	16dd\	>	16ff\	>
.	.	.	.	16cc\JJ)	.	16ee-\JJ)	.
=107	=107	=107	=107	=107	=107	=107	=107
4B-\	<	16f\LL]	.	4b-\	.	4dd\	.
.	.	16en\	<	.	.	.	.
.	.	16f\	.	.	.	.	.
.	.	16en\	>	.	.	.	.
8r	.	16f\	.	8r	.	8r	.
.	.	16en\JJ	.	.	.	.	.
=108	=108	=108	=108	=108	=108	=108	=108
4.A\	.	[4.f\	.	(16ee-\LL	.	(16gg\LL	.
.	.	.	.	16dd\	.	16ff#\	.
.	.	.	.	16ff\	.	16aa\	.
.	.	.	.	16ee-\	.	16gg\	.
.	.	.	.	16dd\	.	16ff\	.
.	.	.	.	16cc\JJ)	.	16ee-\JJ)	.
=109	=109	=109	=109	=109	=109	=109	=109
4B-\	.	16f\LL]	.	4b-\	.	4dd\	.
.	.	16en\	.	.	.	.	.
.	.	16f\	.	.	.	.	.
.	.	16en\	.	.	.	.	.
8r	.	16f\	.	8r	.	8r	.
.	.	16en\JJ	.	.	.	.	.
=110	=110	=110	=110	=110	=110	=110	=110
4.A\	.	[4.f\	.	(16ee-\LL	.	(16gg\LL	.
.	.	.	.	16dd\	.	16ff#\	.
.	.	.	.	16ff\	.	16aa\	.
.	.	.	.	16ee-\	.	16gg\	.
.	.	.	.	16dd\	.	16ff\	.
.	.	.	.	16cc\JJ)	.	16ee-\JJ)	.
=111	=111	=111	=111	=111	=111	=111	=111
8B-\L	.	8f\L]	.	8b-/L	.	(16dd\LL	.
.	.	.	.	.	.	16bb-\)	.
8r	.	8r	.	8r	.	16ff\	.
.	.	.	.	.	.	16dd\	.
8E-\J	.	8e-\J	.	8g/J	.	16cc\	.
.	.	.	.	.	.	16gg\JJ	.
=112	=112	=112	=112	=112	=112	=112	=112
8F/L	.	8d\L	.	8f/L	.	(16b-\LL	.
.	.	.	.	.	.	16ff\)	.
8r	.	8r	.	8r	.	16dd\	.
.	.	.	.	.	.	16b-\	.
8FF/J	.	8c\J	.	8e-/J	.	16f\	.
.	.	.	.	.	.	16a\JJ	.
=113	=113	=113	=113	=113	=113	=113	=113
8BB-/	.	16B-\LL	.	8d/	.	8b-\	.
.	.	16c\	.	.	.	.	.
8r	.	16d\	.	8r	.	8r	.
.	.	16e-\	.	.	.	.	.
8r	.	16f\	.	8r	.	8r	.
.	.	16f#\JJ	.	.	.	.	.
=114	=114	=114	=114	=114	=114	=114	=114
16e-\LL	p	16g\LL	p	8a\L	p	[4.fff\	p
16d\	<	16f#\	.	.	.	.	.
16f\	.	16a\	.	8r	.	.	.
16e-\	.	16g\	.	.	.	.	.
16d\	>	16f#\	.	(8aa\J	.	.	.
16c\JJ	.	16e-\JJ	.	.	.	.	.
=115	=115	=115	=115	=115	=115	=115	=115
4B-\	.	4d\	.	8bb-\L)	.	(16fff\LL]	.
.	.	.	.	.	.	16eeen\	<
.	.	.	.	8r	.	16fff\	.
.	.	.	.	.	.	16eeen\	.
8r	.	8r	.	(8b-\J	.	16fff\)	>
.	.	.	.	.	.	16eeen\JJ	.
=116	=116	=116	=116	=116	=116	=116	=116
16e-\LL	.	16g\LL	.	8a\L)	.	[4.fff\	.
16d\	.	16f#\	.	.	.	.	.
16f\	.	16a\	.	8r	.	.	.
16e-\	.	16g\	.	.	.	.	.
16d\	.	16f\	.	(8aa\J	.	.	.
16c\JJ	.	16e-\JJ	.	.	.	.	.
=117	=117	=117	=117	=117	=117	=117	=117
4B-\	.	4d\	.	8bb-\L)	.	(16fff\LL]	.
.	.	.	.	.	.	16eeen\	.
.	.	.	.	8r	.	16fff\	.
.	.	.	.	.	.	16eeen\	.
8r	.	8r	.	(8b-\J	.	16fff\	.
.	.	.	.	.	.	16eeen\JJ)	.
=118	=118	=118	=118	=118	=118	=118	=118
16E-\LL	.	16G/LL	.	8a\L)	.	[4.fff\	.
16D\	.	16F#/	.	.	.	.	.
16F\	.	16A/	.	8r	.	.	.
16E-\	.	16G/	.	.	.	.	.
16D\	.	16F/	.	(8aa\J	.	.	.
16C\JJ	.	16E-/JJ	.	.	.	.	.
=119	=119	=119	=119	=119	=119	=119	=119
16BB-\LL	<	16D/LL	<	8bb-\)	.	8fff\]	.
16C\	.	16E-/	.	.	.	.	.
16D\	.	16F/	.	8r	.	8r	.
16E-\	.	16G/	.	.	.	.	.
16F\	.	16A/	.	8r	.	8r	.
16G\JJ	.	16B-/JJ	.	.	.	.	.
=120	=120	=120	=120	=120	=120	=120	=120
8A\L	.	8c\L	.	8r	.	4.r	.
8A\	.	8c\	.	8r	.	.	.
8A-\J	.	8d\J	.	8b-\	.	.	.
=121	=121	=121	=121	=121	=121	=121	=121
4.G\	.	[4.e-\	.	4.B-/	.	4.r	.
=122	=122	=122	=122	=122	=122	=122	=122
4.G-\	>	4.e-\]	>	4.b-\	.	(16ee-\LL	p
.	.	.	.	.	.	16ff\	.
.	.	.	.	.	.	16gg-\	.
.	.	.	.	.	.	16aa-\	.
.	.	.	.	.	.	16bb-\	.
.	.	.	.	.	.	16ccc\JJ)	.
=123	=123	=123	=123	=123	=123	=123	=123
8FF/L	p	4d-\	p	(4b-\	p	(4ddd-\	.
8F/J	.	.	.	.	.	.	.
8r	.	8f\	.	8dd-\)	.	8bb-\)	.
=124	=124	=124	=124	=124	=124	=124	=124
8FF/L	.	4c\	.	(4a/	.	(4aa\	.
8F/J	.	.	.	.	.	.	.
8r	.	8e-\	.	8cc\)	.	8ccc\)	.
=125	=125	=125	=125	=125	=125	=125	=125
16BB-\LL	<	8r	<	16d/LL	<	4.r	.
16C\	.	.	.	(16e-/	.	.	.
16D\	.	16F/LL	.	16f/	.	.	.
16E-\	.	16G/	.	16g/	.	.	.
16F\	.	16A/	.	16a/	.	.	.
16G\JJ	.	16B-/JJ	.	16b-/JJ)	.	.	.
=126	=126	=126	=126	=126	=126	=126	=126
8A\L	.	8c\L	.	8cc\L	.	4.r	.
8A\	.	8c\ 8f\	.	8cc\	.	.	.
8A-\J	.	8B-\J 8f\	.	8dd\J	.	.	.
=127	=127	=127	=127	=127	=127	=127	=127
4.G\	.	4.B-\ 4.e-\	.	[4.ee-\	.	4.r	.
=128	=128	=128	=128	=128	=128	=128	=128
4.G-\	p	8A-\L	p	(8ee-\L]	p	(16ee-\LL	p
.	.	.	.	.	.	16ff\	.
.	.	8c\	.	8cc\	.	16gg-\	.
.	.	.	.	.	.	16aa-\	.
.	.	8e-\J	.	8a-\J	.	16bb-\	.
.	.	.	.	.	.	16ccc\JJ)	.
=129	=129	=129	=129	=129	=129	=129	=129
[4.F\	.	8A-/L	.	8dd-\L	.	4.ddd-\	.
.	.	8d-/	.	8a-\	.	.	.
.	.	8A-/J	.	[8dd-\J)	.	.	.
=130	=130	=130	=130	=130	=130	=130	=130
4.F\]	.	8G-/L	.	(8dd-\L]	.	(16dd-\LL	.
.	.	.	.	.	.	16ee-\	.
.	.	8B-/	.	8b-\	.	16ff\	.
.	.	.	.	.	.	16gg-\	.
.	.	8d-/J	.	8g-\J	.	16aa-\	.
.	.	.	.	.	.	16bb-\JJ)	.
=131	=131	=131	=131	=131	=131	=131	=131
[4.E-\	.	8G-/L	.	8cc-/L	.	4.ccc-\	.
.	.	8c-/	.	8g-/)	.	.	.
.	.	8G-/J	.	8cc-/J	.	.	.
=132	=132	=132	=132	=132	=132	=132	=132
4.E-\]	.	8F/L	.	(8a/L	.	(16cc\LL	.
.	.	.	.	.	.	16dd-\	.
.	.	8A/	.	8cc/	.	16ee-\	.
.	.	.	.	.	.	16ff\	.
.	.	8c/J	.	[8f/J)	.	16gg\	.
.	.	.	.	.	.	16aa\JJ)	.
=133	=133	=133	=133	=133	=133	=133	=133
8D-/L	<	8F/L	<	(8f/L]	<	[4.bb-\	<
8C/	.	8B-/	.	8b-/)	.	.	.
8BB-/J	.	8B-/J	.	8b-/J	.	.	.
=134	=134	=134	=134	=134	=134	=134	=134
8AA-/L	.	8B-/L	.	8b-\L	.	(16bb-\LL]	.
.	.	.	.	.	.	16ccc\	.
8GG/	.	8B-/	.	8b-\	.	16ddd-\	.
.	.	.	.	.	.	16ddd\	.
8GG-/J	.	8B-/J	.	8b-\J	.	16eee-\	.
.	.	.	.	.	.	16eeen\JJ)	.
=135	=135	=135	=135	=135	=135	=135	=135
8FF/L	.	16d\LL	.	(16b-\LL	.	4.fff\	.
.	.	16f\J	.	16dd\J)	.	.	.
8EEn/	.	16r	.	16r	.	.	.
.	.	16f\L	.	(16dd\L	.	.	.
8FF/J	.	16d\	.	16b-\	.	.	.
.	.	16f\JJ	.	16dd\JJ)	.	.	.
=136	=136	=136	=136	=136	=136	=136	=136
8F\L	.	16c\LL	.	(16a\LL	.	4.aa\	.
.	.	16e-\J	.	16cc\J)	.	.	.
8En\	.	16r	.	16r	.	.	.
.	.	16e-\L	.	(16cc\L	.	.	.
8F\J	.	16c\	.	16a\	.	.	.
.	.	16e-\JJ	.	16cc\JJ)	.	.	.
=137	=137	=137	=137	=137	=137	=137	=137
8BB-\L	.	8d\L	.	8b-/L	.	8bb-\L	.
8r	.	8d\J	p	8B-/J 8f/	p	16r	.
.	.	.	.	.	.	(16f\L	p
8B-\J	p	8r	.	8r	.	16dd\	.
.	.	.	.	.	.	16cc\JJ)	.
=138	=138	=138	=138	=138	=138	=138	=138
8BB-\L	.	8r	.	8r	.	(16b-\LL	.
.	.	.	.	.	.	16a\)	.
8r	.	8d\	.	8B-/ 8f/	.	16b-\	.
.	.	.	.	.	.	16cc\	.
8B-\J	.	8r	.	8r	.	16dd\	.
.	.	.	.	.	.	16ee-\JJ	.
=139	=139	=139	=139	=139	=139	=139	=139
8AA\L	.	8r	.	8r	.	(16cc\LL	.
.	.	.	.	.	.	16bn\)	.
8r	.	8e-\	.	8c/ 8f/	.	16cc\	.
.	.	.	.	.	.	16f\	.
8A\J	.	8r	.	8r	.	16ee-\	.
.	.	.	.	.	.	16dd\JJ	.
=140	=140	=140	=140	=140	=140	=140	=140
8AA\L	.	8r	.	8r	.	(16cc\LL	.
.	.	.	.	.	.	16bn\)	.
8r	.	8e-\	.	8c/ 8f/	.	16cc\	.
.	.	.	.	.	.	16dd\	.
8A\J	.	8r	.	8r	.	16ee-\	.
.	.	.	.	.	.	16ff\JJ	.
=141	=141	=141	=141	=141	=141	=141	=141
8AA-\L	<	8r	.	8r	.	(16dd\LL	<
.	.	.	.	.	.	16cc#\)	<
8r	<	8d\	<	8B-/ 8f/	<	16dd\	.
.	.	.	.	.	.	16b-\	.
8A-\J	.	8r	<	8r	<	16ff\	.
.	.	.	.	.	.	16ee-\JJ	.
=142	=142	=142	=142	=142	=142	=142	=142
8AA-\L	.	8r	.	8r	.	(16dd\LL	.
.	.	.	.	.	.	16cc#\)	.
8r	.	8d\	.	8B-/ 8f/	.	16dd\	.
.	.	.	.	.	.	16ee-\	.
8A-\J	.	8r	.	8r	.	16ff\	.
.	.	.	.	.	.	16gg\JJ	.
=143	=143	=143	=143	=143	=143	=143	=143
8GG/L	.	8r	.	8r	.	(16ee-\LL	.
.	.	.	.	.	.	16dd\)	.
8r	.	8e-\	.	8B-/ 8g/	.	16ee-\	.
.	.	.	.	.	.	16b-\	.
8G/J	.	8r	.	8r	.	16gg\	.
.	.	.	.	.	.	16ff\JJ	.
=144	=144	=144	=144	=144	=144	=144	=144
8GG/L	.	8r	.	8r	.	(16ee-\LL	.
.	.	.	.	.	.	16dd\)	.
8r	.	8B-\ 8g\	.	8e-/ 8b-/	.	16ee-\	.
.	.	.	.	.	.	16ff\	.
8G/J	.	8r	.	8r	.	16gg\	.
.	.	.	.	.	.	16aa-\JJ	.
=145	=145	=145	=145	=145	=145	=145	=145
8DD/L	.	8r	.	8r	.	(16ff\LL	.
.	.	.	.	.	.	16een\)	.
8r	.	8B-\ 8a-\	.	8f/ 8b-/	.	16ff\	.
.	.	.	.	.	.	16b-\	.
8D/J	.	8r	.	8r	.	16aa-\	.
.	.	.	.	.	.	16gg\JJ	.
=146	=146	=146	=146	=146	=146	=146	=146
8DD/L	.	8r	.	8r	.	(16ff\LL	.
.	.	.	.	.	.	16een\)	.
8r	.	8B-\ 8a-\	.	8f/ 8b-/	.	16ff\	.
.	.	.	.	.	.	16gg\	.
8D/J	.	8r	.	8r	.	16aa\	.
.	.	.	.	.	.	16bb-\JJ	.
=147	=147	=147	=147	=147	=147	=147	=147
8EE-/L	.	8r	.	8r	.	(16gg\LL	.
.	.	.	.	.	.	16ff#\)	.
8r	.	8B-\ 8g\	.	8e-/ 8b-/	.	16gg\	.
.	.	.	.	.	.	16aa-\	.
8E-/J	.	8r	.	8r	.	16bb-\	.
.	.	.	.	.	.	16gg\JJ	.
=148	=148	=148	=148	=148	=148	=148	=148
8EE-/L	.	8r	.	8r	.	(16aa\LL	.
.	.	.	.	.	.	16gg\)	.
8r	.	8f#\ 8a\	.	8e-/ 8cc/	.	16aa\	.
.	.	.	.	.	.	16bb-\	.
8E-/J	.	8r	.	8r	.	16ccc\	.
.	.	.	.	.	.	16aa\JJ	.
=149	=149	=149	=149	=149	=149	=149	=149
8EEn/	.	8r	.	8r	.	(16bb-\LL	ff
.	.	.	.	.	.	16aa\)	.
16d-\LL	ff	[4g\ [4b-\	ff	[4en/ [4dd-/	ff	16bb-\	.
16B-\	.	.	.	.	.	16ccc\J	.
16G\	.	.	.	.	.	[8ddd-\J	f
16En\JJ	.	.	.	.	.	.	.
=150	=150	=150	=150	=150	=150	=150	=150
16D-/LL	.	4.g\] 4.b-\]	.	4.e/] 4.dd-/]	.	4.ddd-\]	.
16BB-/	.	.	.	.	.	.	.
16GG/	.	.	.	.	.	.	.
16BB-/J	.	.	.	.	.	.	.
8EEn/J	.	.	.	.	.	.	.
=151	=151	=151	=151	=151	=151	=151	=151
*M2/4	*M2/4	*M2/4	*M2/4	*M2/4	*M2/4	*M2/4	*M2/4
*MM32	*MM32	*MM32	*MM32	*MM32	*MM32	*MM32	*MM32
4FF/	pp	4f\	pp	4b-\	pp	4dd\	pp
4r	.	8f\L	.	(8b-\L	.	(8dd\L	.
.	.	8f\J	.	8b-\J)	.	8dd\J)	.
=152	=152	=152	=152	=152	=152	=152	=152
2r	.	4f\	.	4b-\	.	4dd\	.
.	.	8..d\L	.	(8..f/L	.	(8..b-\L	.
.	.	32c\Jkk	.	32a/Jkk	.	32cc\Jkk	.
=153	=153	=153	=153	=153	=153	=153	=153
2r	.	4B-/	.	8..b-\L	.	8..dd\L	.
.	.	.	.	32cc\Jkk)	.	32ee-\Jkk)	.
.	.	8b-\L	.	(8dd\L	.	(8ff\L	.
.	.	8b-\J	.	8dd\J)	.	8ff\J)	.
=154	=154	=154	=154	=154	=154	=154	=154
.	.	.	.	(cc#q\	.	(eenq\	.
.	.	.	.	ddq\)	.	ffq\)	.
.	.	.	.	ee-q\	.	ggq\	.
2r	.	2b-\	.	2dd\	.	2ff\	.
=155	=155	=155	=155	=155	=155	=155	=155
4AA-/	pp	4F/	pp	4B-/ 4d/	pp	2r	.
8AA-/L	.	8F/L	.	(8B-/L 8d/	.	.	.
8AA-/J	.	8F/J	.	8B-/J) 8d/	.	.	.
=156	=156	=156	=156	=156	=156	=156	=156
2GG/	.	4F/	.	4Bn/ 4d/	.	4r	.
.	.	8..G/L	.	(8..Bn/L	.	(8..ff\L	pp
.	.	32A/Jkk	.	32c/Jkk	.	32ee-\Jkk	.
=157	=157	=157	=157	=157	=157	=157	=157
4GG/	.	8..Bn/L	.	8..d/L	.	8..dd\L	.
.	.	32c/Jkk	.	32e-/Jkk)	.	32cc\Jkk)	.
8G\L	.	8d\L	.	(8f/L	.	(8bn\L	.
8G\J	.	8d\J	.	8f/J)	.	8bn\J)	.
=158	=158	=158	=158	=158	=158	=158	=158
.	.	.	.	.	.	(a#q\	.
.	.	.	.	.	.	bnq\)	.
.	.	.	.	.	.	ccq\	.
2F#\	pp	2d\	pp	2f#/	pp	2bn\	pp
=159	=159	=159	=159	=159	=159	=159	=159
.	.	.	.	(ff#q\	.	.	.
.	.	.	.	gg#q\)	.	.	.
.	.	.	.	aaq\	.	.	.
2F\	f	2bn\	f	2gg#\	f	2d/	f
=160	=160	=160	=160	=160	=160	=160	=160
.	.	.	.	.	.	(a#q\	.
.	.	.	.	.	.	bnq\)	.
.	.	.	.	.	.	ccq\	.
[4En\	pp	[4d\	pp	[4g#/	pp	[4bn\	pp
16E\]	.	16d\]	.	16g#/]	.	16bn\]	.
16r	.	16r	.	16r	.	(16en/LL	.
8r	.	8r	.	8r	.	16cc/)	.
.	.	.	.	.	.	16bn/JJ	.
=161	=161	=161	=161	=161	=161	=161	=161
*M3/8	*M3/8	*M3/8	*M3/8	*M3/8	*M3/8	*M3/8	*M3/8
*MM110	*MM110	*MM110	*MM110	*MM110	*MM110	*MM110	*MM110
8AA/	.	8A/	.	8c/ 8en/	.	(16a/LL	.
.	.	.	.	.	.	16g#/)	.
4EEn/	.	4A/	.	4c/ 4en/	.	16a/	.
.	.	.	.	.	.	16bn/	.
.	.	.	.	.	.	16cc/	.
.	.	.	.	.	.	16dd/JJ	.
=162	=162	=162	=162	=162	=162	=162	=162
8GG#/	.	8Bn/	.	8d/ 8en/	.	(16bn/LL	.
.	.	.	.	.	.	16a#/)	.
4EEn/	.	4Bn/	.	4d/ 4en/	.	16bn/	.
.	.	.	.	.	.	16en/	.
.	.	.	.	.	.	16dd/	.
.	.	.	.	.	.	16cc/JJ	.
=163	=163	=163	=163	=163	=163	=163	=163
8G#\L	p	8Bn/L	p	8en/L	p	(16bn\LL	p
.	.	.	.	.	.	16a#\)	.
8F#\	.	8A/	.	8en/	.	16bn\	.
.	.	.	.	.	.	16cc\	.
8En\J	.	8G#/J	.	8en/J	.	16dd\	.
.	.	.	.	.	.	16een\JJ	.
=164	=164	=164	=164	=164	=164	=164	=164
8A\	.	8c\	.	8en/	.	(16cc\LL	.
.	.	.	.	.	.	16bn\	.
8r	.	8r	.	8r	.	16cc\JJ)	.
.	.	.	.	.	.	16r	.
8r	.	8r	.	8r	.	8r	.
=165	=165	=165	=165	=165	=165	=165	=165
4.r	.	4.r	.	4.r	.	4.r	.
=166	=166	=166	=166	=166	=166	=166	=166
*M2/4	*M2/4	*M2/4	*M2/4	*M2/4	*M2/4	*M2/4	*M2/4
*MM32	*MM32	*MM32	*MM32	*MM32	*MM32	*MM32	*MM32
4AA/	<	4En/	<	4A/	<	4c/	<
8AA/L	.	8En/L	.	(8A/L	.	(8c/L	.
8AA/J	.	8En/J	.	8A/J)	.	8c/J)	.
=167	=167	=167	=167	=167	=167	=167	=167
.	.	.	.	(G#q\	.	(Bnq\	.
.	.	.	.	Aq\)	.	cq\)	.
.	.	.	.	Bnq\	.	dq\	.
[4FF#/	p	[4D/	p	[4A/	p	[4c/	p
16FF#/]	.	16D/]	.	16A/]	.	16c/]	.
*MM110	*MM110	*MM110	*MM110	*MM110	*MM110	*MM110	*MM110
16r	.	16r	.	16r	.	(16d/LL	.
8r	.	8r	.	8r	.	16bn/)	.
.	.	.	.	.	.	16a/JJ	.
=168	=168	=168	=168	=168	=168	=168	=168
*M3/8	*M3/8	*M3/8	*M3/8	*M3/8	*M3/8	*M3/8	*M3/8
8GG/	.	8G/	.	8Bn/ 8d/	.	(16g/LL	.
.	.	.	.	.	.	16f#/)	.
4DD/	.	4G/	.	4Bn/ 4d/	.	16g/	.
.	.	.	.	.	.	16a/	.
.	.	.	.	.	.	16bn/	.
.	.	.	.	.	.	16cc/JJ	.
=169	=169	=169	=169	=169	=169	=169	=169
8FF#/	.	8A/	.	8c/ 8d/	.	(16a/LL	.
.	.	.	.	.	.	16g#/)	.
4DD/	.	4A/	.	4c/ 4d/	.	16a/	.
.	.	.	.	.	.	16d/	.
.	.	.	.	.	.	16cc/	.
.	.	.	.	.	.	16bn/JJ	.
=170	=170	=170	=170	=170	=170	=170	=170
8FF#/L	p	8A/L	p	8c/L 8d/	p	(16a/LL	p
.	.	.	.	.	.	16g#/)	.
8EEn/	.	8G/	.	8c/ 8d/	.	16a/	.
.	.	.	.	.	.	16bn/	.
8DD/J	.	8F#/J	.	8c/J 8d/	.	16cc/	.
.	.	.	.	.	.	16dd/JJ	.
=171	=171	=171	=171	=171	=171	=171	=171
8GG/L	.	8r	.	8r	.	(16bn\LL	.
.	.	.	.	.	.	16a#\)	.
8r	.	8G/	.	8Bn/ 8d/	.	16bn\	.
.	.	.	.	.	.	16g\	.
8G/J	.	8r	.	8r	.	16dd\	.
.	.	.	.	.	.	16cc\JJ	.
=172	=172	=172	=172	=172	=172	=172	=172
8GG/L	.	8r	.	8r	.	(16bn\LL	.
.	.	.	.	.	.	16a#\)	.
8r	.	8d\	.	8G/ 8f/	.	16bn\	.
.	.	.	.	.	.	16cc\	.
8G/J	.	8r	.	8r	.	16dd\	.
.	.	.	.	.	.	16ee-\JJ	.
=173	=173	=173	=173	=173	=173	=173	=173
8C\L	.	8r	.	8r	.	16cc\LL	.
.	.	.	.	.	.	16g\	.
8r	.	8c\	.	8G/ 8e-/	.	16ee-\	.
.	.	.	.	.	.	16dd\	.
8c\J	.	8r	.	8r	.	16cc\	.
.	.	.	.	.	.	16g\JJ	.
=174	=174	=174	=174	=174	=174	=174	=174
8BB-\L	.	8r	.	8r	.	16ee-\LL	.
.	.	.	.	.	.	16dd\	.
8r	.	8e-\	.	8c/ 8g/	.	16cc\	.
.	.	.	.	.	.	16g\	.
8B-\J	.	8r	.	8r	.	16ee-\	.
.	.	.	.	.	.	16dd\JJ	.
=175	=175	=175	=175	=175	=175	=175	=175
8AA\L	pp	8r	.	8r	.	16cc\LL	.
.	.	.	.	.	.	16f\	.
8r	.	8e-\	pp	8c/ 8f/	pp	16ee-\	pp
.	.	.	.	.	.	16dd\	.
8A\J	.	8r	.	8r	.	16cc\	.
.	.	.	.	.	.	16f\JJ	.
=176	=176	=176	=176	=176	=176	=176	=176
4.r	.	4.r	.	4.r	.	16ee-\LL	.
.	.	.	.	.	.	16dd\	.
.	.	.	.	.	.	16cc\	.
.	.	.	.	.	.	16f\	.
.	.	.	.	.	.	16dd\	.
.	.	.	.	.	.	16cc\JJ	.
=177	=177	=177	=177	=177	=177	=177	=177
8BB-/	.	8F/	.	8B-/ 8d/	.	(16b-\LL	.
.	.	.	.	.	.	16a\)	.
4FF/	.	4F/	.	4B-/ 4d/	.	16b-\	.
.	.	.	.	.	.	16cc\	.
.	.	.	.	.	.	16dd\	.
.	.	.	.	.	.	16ee-\JJ	.
=178	=178	=178	=178	=178	=178	=178	=178
8AA/	.	8F/	.	8c/ 8e-/	.	(16cc\LL	.
.	.	.	.	.	.	16bn\)	.
4FF/	.	4F/	.	4c/ 4e-/	.	16cc\	.
.	.	.	.	.	.	16f\	.
.	.	.	.	.	.	16ee-\	.
.	.	.	.	.	.	16dd\JJ	.
=179	=179	=179	=179	=179	=179	=179	=179
4.r	.	8A/L	p	(8c/L	p	(16cc\LL	.
.	.	.	.	.	.	16bn\)	.
.	.	8G/	.	8B-/	.	16cc\	.
.	.	.	.	.	.	16dd\	.
.	.	8F/J	.	8A/J	.	16ee-\	.
.	.	.	.	.	.	16ff\JJ	.
=180	=180	=180	=180	=180	=180	=180	=180
4.r	.	8B-\L	.	8d/L	.	(16dd\LL	.
.	.	.	.	.	.	16b-\)	.
.	.	8c\	.	8e-/	.	16bb-\	.
.	.	.	.	.	.	16b-\	.
.	.	8d\J	.	8f/J)	.	16bb-\	.
.	.	.	.	.	.	16aa-\JJ	.
=181	=181	=181	=181	=181	=181	=181	=181
4.r	.	8e-/L	.	(8g/L	.	(16aa-\LL	.
.	.	.	.	.	.	16gg\)	.
.	.	8A/	.	8c/	.	16gg\	.
.	.	.	.	.	.	16ff#\	.
.	.	8B-/J	.	8d/J	.	16gg\	.
.	.	.	.	.	.	16ff\JJ	.
=182	=182	=182	=182	=182	=182	=182	=182
4.r	.	8c/L	.	8e-/L	.	(16ff\LL	.
.	.	.	.	.	.	16ee-\)	.
.	.	8F#/	.	8A/	.	16ee-\	.
.	.	.	.	.	.	16dd\	.
.	.	8G/J	.	8B-/J)	.	16ee-\	.
.	.	.	.	.	.	16dd\JJ	.
=183	=183	=183	=183	=183	=183	=183	=183
4.r	.	8E-/L	.	(8G/L	.	(16cc\LL	.
.	.	.	.	.	.	16gg\)	.
.	.	8C/	.	8e-/	.	16ff\	.
.	.	.	.	.	.	16ee-\	.
.	.	8E-/J	.	8g/J)	.	16dd\	.
.	.	.	.	.	.	16cc\JJ	.
=184	=184	=184	=184	=184	=184	=184	=184
4.r	.	4F/	.	4c/	.	(16b-/LL	.
.	.	.	.	.	.	16a/)	.
.	.	.	.	.	.	16g/	.
.	.	.	.	.	.	16f/	.
.	.	8r	.	8r	.	16dd/	.
.	.	.	.	.	.	16cc/JJ	.
=185	=185	=185	=185	=185	=185	=185	=185
8F\L	.	4.r	.	4.r	.	(16b-\LL	.
.	.	.	.	.	.	16a\)	.
16E-\L	.	.	.	.	.	16b-\	.
16D\	.	.	.	.	.	16cc\	.
16C\	.	.	.	.	.	16dd\	.
16BB-\JJ	.	.	.	.	.	16ee-\JJ	.
=186	=186	=186	=186	=186	=186	=186	=186
[4.FF/	.	8c/L	.	4.r	.	(16cc\LL	.
.	.	.	.	.	.	16bn\)	.
.	.	16B-/L	.	.	.	16cc\	.
.	.	16A/	.	.	.	16f\	.
.	.	16G/	.	.	.	16ee-\	.
.	.	16F/JJ	.	.	.	16dd\JJ	.
=187	=187	=187	=187	=187	=187	=187	=187
4.FF/]	.	8e-\L	.	(8cc/L	.	(16cc\LL	.
.	.	.	.	.	.	16bn\)	.
.	.	16d\L	.	16b-/L	.	16cc\	.
.	.	16c\	.	16a/	.	16dd\	.
.	.	16B-\	.	16g/	.	16ee-\	.
.	.	16A\JJ	.	16f/JJ)	.	16ff\JJ	.
=188	=188	=188	=188	=188	=188	=188	=188
8F\L	<	16B-\LL	<	(16a-/LL	<	(16dd\LL	<
.	.	16B-\	.	16d/	.	16b-\)	.
16E-\L	.	16c\	.	16e-/	.	16bb-\	.
16D\	.	16d\	.	16f/	.	16b-\	.
16C\	.	16e-\	.	16g/	.	16bb-\	.
16BB-\JJ	.	16f\JJ	.	16a-/JJ)	.	16aa-\JJ	.
=189	=189	=189	=189	=189	=189	=189	=189
8E-/L	f	8G/L	f	(8g/L	f	(16aa-\LL	f
.	.	.	.	.	.	16gg\)	.
8AA/	.	8C/	.	8c/	.	16gg\	.
.	.	.	.	.	.	16ff#\	.
8BBn/J	.	8D/J	.	8d/J	.	16gg\	.
.	.	.	.	.	.	16ff\JJ	.
=190	=190	=190	=190	=190	=190	=190	=190
8C/L	.	8E-/L	.	8e-/L	.	(16ff\LL	.
.	.	.	.	.	.	16ee-\)	.
8FF#/	.	8A/	.	8a/	.	16ee-\	.
.	.	.	.	.	.	16dd\	.
8GG/J	.	8B-/J	.	8b-/J)	.	16ee-\	.
.	.	.	.	.	.	16dd\JJ	.
=191	=191	=191	=191	=191	=191	=191	=191
8EE-/L	.	8G/L	.	(8g/L	.	(16cc\LL	.
.	.	.	.	.	.	16gg\)	.
8CC/	.	8E-/	.	8e-/)	.	16ff\	.
.	.	.	.	.	.	16ee-\	.
8FF/J	.	8A/J	.	8e-/J	.	16dd\	.
.	.	.	.	.	.	16cc\JJ	.
=192	=192	=192	=192	=192	=192	=192	=192
8BB-\L	.	8B-/L	.	8d/	.	8b-\	.
8D\	p	16r	.	8r	.	8r	.
.	.	16D/L	p	.	.	.	.
8F\J	.	16d/	.	8r	.	8r	.
.	.	16c/JJ	.	.	.	.	.
=193	=193	=193	=193	=193	=193	=193	=193
8B-\L	.	16c/LL	.	4.r	.	8r	.
.	.	16B-/	.	.	.	.	.
8r	.	16B-/	.	.	.	8r	.
.	.	16A/	.	.	.	.	.
8BB-\J	.	16G/	.	.	.	(8dd\	p
.	.	16F/JJ	.	.	.	.	.
=194	=194	=194	=194	=194	=194	=194	=194
8C\L	.	8E-/	.	8r	.	8ee-\L)	.
8E-\	.	8r	.	16r	.	8aa\	.
.	.	.	.	(16e-/LL	p	.	.
8A\J	.	8r	.	16ee-/	.	8ccc\J	.
.	.	.	.	16dd/JJ)	.	.	.
=195	=195	=195	=195	=195	=195	=195	=195
8c\L	.	4.r	.	16dd\LL	.	8eee-\L	.
.	.	.	.	16cc\	.	.	.
8r	.	.	.	16cc\	.	8r	.
.	.	.	.	16b-\	.	.	.
8C\J	.	.	.	16a\	.	(8ee-\J	.
.	.	.	.	16g\JJ	.	.	.
=196	=196	=196	=196	=196	=196	=196	=196
8D\L	.	8r	.	8f/	.	8ff\L)	.
8F\	.	16r	p	8r	.	8bb-\	.
.	.	16F/LL	.	.	.	.	.
8B-\J	.	16f/	.	8r	.	8ddd\J	.
.	.	16e-/JJ	.	.	.	.	.
=197	=197	=197	=197	=197	=197	=197	=197
8d\L	.	16e-\LL	.	8r	.	8fff\	.
.	.	16d\	.	.	.	.	.
8r	.	16d\	.	8r	.	8r	.
.	.	16c\	.	.	.	.	.
8D\J	.	16B-\	.	(8ff\	.	8r	.
.	.	16A\JJ	.	.	.	.	.
=198	=198	=198	=198	=198	=198	=198	=198
4E-\	.	8G/L	.	8gg\L)	.	8r	.
.	.	8c/	.	8g\	.	16r	.
.	.	.	.	.	.	(16cc\LL	.
8En\	.	8c/J	.	8g\J	.	16ccc\	.
.	.	.	.	.	.	16bb-\JJ)	.
=199	=199	=199	=199	=199	=199	=199	=199
4F\	<	4c\	<	(4a/	<	(16bb-\LL	<
.	.	.	.	.	.	16aa\)	.
.	.	.	.	.	.	16aa\	.
.	.	.	.	.	.	16gg\	.
8F#\	.	8c\	.	8e-/	.	16ff\	.
.	.	.	.	.	.	16ee-\JJ	.
=200	=200	=200	=200	=200	=200	=200	=200
4G\	.	4B-/	.	4d/	.	(16ee-\LL	.
.	.	.	.	.	.	16dd\)	.
.	.	.	.	.	.	16dd\	.
.	.	.	.	.	.	16cc\	.
8D\	.	8B-/	.	8f/)	.	16b-\	.
.	.	.	.	.	.	16a-\JJ	.
=201	=201	=201	=201	=201	=201	=201	=201
16E-/LL	.	16B-/LL	.	(16g/LL	.	(16g\LL	.
16En/	.	16B-/J	.	16c/J)	.	16gg\J)	.
16F/	.	8B-/	.	(8d/	.	(8b-\	.
16En/	.	.	.	.	.	.	.
16F/	.	8A/J	.	8e-/J)	.	16dd\L	.
16FF/JJ	.	.	.	.	.	16cc\JJ)	.
=202	=202	=202	=202	=202	=202	=202	=202
8BB-\L	.	8B-/L	.	8d/	.	8b-\L	.
16r	.	16r	.	8r	.	8dd\	p
16BB-\L	p	16D/L	p	.	.	.	.
16B-\	.	16d/	.	8r	.	8ff\J	.
16A\JJ	.	16c/JJ	.	.	.	.	.
=203	=203	=203	=203	=203	=203	=203	=203
16A\LL	.	16c/LL	.	8r	.	8bb-\L	.
16G\	.	16B-/	.	.	.	.	.
16G\	.	16B-/	.	8r	.	8r	.
16F\	.	16A/	.	.	.	.	.
16E-\	.	16G/	.	(8d/	p	(8b-\J	.
16D\JJ	.	16F/JJ	.	.	.	.	.
=204	=204	=204	=204	=204	=204	=204	=204
4C/	.	8E-/L	.	8e-/L)	.	8a\L)	.
.	.	16r	.	8a/	.	16r	.
.	.	16C/L	.	.	.	(16ee-\L	.
8r	.	16c/	.	8cc/J	.	16eee-\	.
.	.	16B-/JJ	.	.	.	16ddd\JJ)	.
=205	=205	=205	=205	=205	=205	=205	=205
4.r	.	16B-/LL	.	8ee-/L	.	(16ddd\LL	.
.	.	16A/	.	.	.	16ccc\)	.
.	.	16A/	.	8r	.	16ccc\	.
.	.	16G/	.	.	.	16bb-\	.
.	.	16F/	.	(8c/J	.	16aa\	.
.	.	16E-/JJ	.	.	.	16gg\JJ	.
=206	=206	=206	=206	=206	=206	=206	=206
8r	.	8D/L	.	8f\L)	.	8ff\	.
16r	.	8B-/	.	16r	.	8r	.
16D\LL	p	.	.	(16f\L	.	.	.
16d\	.	8d/J	.	16ff\	.	8r	.
16c\JJ	.	.	.	16ee-\JJ)	.	.	.
=207	=207	=207	=207	=207	=207	=207	=207
16c\LL	.	8f\L	.	(16ee-\LL	.	8r	.
16B-\	.	.	.	16dd\)	.	.	.
16B-\	.	8r	.	16dd\	.	8r	.
16A-\	.	.	.	16cc\	.	.	.
16G\	.	8d\J	.	16b-\	.	(8ee-\	.
16F\JJ	.	.	.	16a-\JJ	.	.	.
=208	=208	=208	=208	=208	=208	=208	=208
8E-\L	.	8e-\	.	8g\L	.	8gg\L)	.
8G\	.	8r	.	8b-\	.	16r	.
.	.	.	.	.	.	(16gg\L	.
8B-\J	.	8r	.	8ee-\J	.	16ggg\	.
.	.	.	.	.	.	16fff\JJ)	.
=209	=209	=209	=209	=209	=209	=209	=209
4e-\	.	8r	.	8gg\L	.	(16fff\LL	.
.	.	.	.	.	.	16eee-\)	.
.	.	8g\L	.	8cc\	.	16eee-\	.
.	.	.	.	.	.	16ddd\	.
8en\	.	8g\J	.	8cc\J	.	16ccc\	.
.	.	.	.	.	.	16bb-\JJ	.
=210	=210	=210	=210	=210	=210	=210	=210
8f\	.	8a\L	.	8cc/L	.	(16bb-\LL	.
.	.	.	.	.	.	16aa\)	.
8F\L	.	8c\	.	8a/	.	16aa\	.
.	.	.	.	.	.	16gg\	.
8F#\J	.	8c\J	.	8a/J	.	16ff\	.
.	.	.	.	.	.	16ee-\JJ	.
=211	=211	=211	=211	=211	=211	=211	=211
8G\L	.	8B-/L	.	8b-/L	.	(16ee-\LL	.
.	.	.	.	.	.	16dd\)	.
8A-\	.	8B-/	.	8f/	.	16dd\	.
.	.	.	.	.	.	16cc\	.
8D\J	.	8B-/J	.	8f/J	.	16b-\	.
.	.	.	.	.	.	16a-\JJ	.
=212	=212	=212	=212	=212	=212	=212	=212
8EE-/L	<	16B-/LL	<	(16g/LL	<	4.g/	<
.	.	16G/J	.	16B-/J)	.	.	.
8DD/	.	16r	.	16r	.	.	.
.	.	16G/L	.	(16B-/L	.	.	.
8EE-/J	.	16B-/	.	16g/	.	.	.
.	.	16G/JJ	.	16B-/JJ)	.	.	.
=213	=213	=213	=213	=213	=213	=213	=213
8EEn/L	.	16B-/LL	.	(16c/LL	.	4.bb-\	.
.	.	16G/J	.	16B-/J)	.	.	.
8DD#/	.	16r	.	16r	.	.	.
.	.	16G/L	.	(16B-/L	.	.	.
8EEn/J	.	16B-/	.	16c/	.	.	.
.	.	16G/JJ	.	16B-/JJ)	.	.	.
=214	=214	=214	=214	=214	=214	=214	=214
8FF/L	.	16B-/LL	.	(16d/LL	.	[4.ff\	.
.	.	16F/J	.	16B-/J)	.	.	.
8EEn/	.	16r	.	16r	.	.	.
.	.	16F/L	.	(16B-/L	.	.	.
8FF/J	.	16B-/	.	16d/	.	.	.
.	.	16F/JJ	.	16B-/JJ)	.	.	.
=215	=215	=215	=215	=215	=215	=215	=215
8F/L	.	16A/LL	.	(16e-/LL	.	16ff\LL]	.
.	.	16F/J	.	16A/J)	.	16een\	.
8FF/	.	16r	.	16r	.	16ee-\	.
.	.	16F/L	.	(16A/L	.	16dd\	.
8FF/J	.	16A/	.	16e-/	.	16cc\	.
.	.	16F/JJ	.	16A/JJ)	.	16ff\JJ	.
=216	=216	=216	=216	=216	=216	=216	=216
8BB-/L	.	8B-/	.	8d/L	.	8b-\	.
8r	.	4F/	p	16r	.	4d/	p
.	.	.	.	(16f/L	p	.	.
8FF/J	p	.	.	16dd/	.	.	.
.	.	.	.	16cc/JJ)	.	.	.
=217	=217	=217	=217	=217	=217	=217	=217
8BB-/L	.	8r	.	8b-/L	.	8r	.
8r	.	4F/	.	16r	.	4d/	.
.	.	.	.	(16f/L	.	.	.
8FF/J	.	.	.	16dd/	.	.	.
.	.	.	.	16b-/JJ)	.	.	.
=218	=218	=218	=218	=218	=218	=218	=218
8C/L	.	8r	.	8a/	.	8r	.
8r	.	4F/	.	4e-/	.	16r	.
.	.	.	.	.	.	(16ff\LL	.
8FF/J	.	.	.	.	.	16ccc\	.
.	.	.	.	.	.	16bb-\JJ)	.
=219	=219	=219	=219	=219	=219	=219	=219
8C/L	.	8r	.	8r	.	8aa\L	.
8r	.	[4F/	.	(4e-/	.	16r	.
.	.	.	.	.	.	(16ff\L	.
8FF/J	.	.	.	.	.	16eee-\	.
.	.	.	.	.	.	16ccc\JJ)	.
=220	=220	=220	=220	=220	=220	=220	=220
8BB-/L	.	8F/L]	.	8d/)	.	8bb-\	.
16r	.	16r	.	[4f/	.	[4ff\	.
16FF/L	.	16F/L	.	.	.	.	.
16D/	.	16B-/	.	.	.	.	.
16C/JJ	.	16c/JJ	.	.	.	.	.
=221	=221	=221	=221	=221	=221	=221	=221
8BB-/L	.	8d/L	.	8f/]	.	8ff\]	.
16r	.	16r	.	[4f/	.	[4ff\	.
16FF/L	.	16F/L	.	.	.	.	.
16D/	.	16B-/	.	.	.	.	.
16BB-/JJ	.	16d/JJ	.	.	.	.	.
=222	=222	=222	=222	=222	=222	=222	=222
8AA/L	.	8e-\	.	8f/L]	.	8ff\L]	.
8r	.	[4c\ [4e-\	.	16r	.	16r	.
.	.	.	.	(16f/L	.	(16ff\L	.
8F/J	.	.	.	16a/	.	16ccc\	.
.	.	.	.	16b-/JJ)	.	16bb-\JJ	.
=223	=223	=223	=223	=223	=223	=223	=223
8FF/L	.	8c\] 8e-\]	.	8cc/L	.	8aa\L)	.
8r	.	[4c\ [4e-\	.	16r	.	16r	.
.	.	.	.	(16f/L	.	(16ff\L	.
8F/J	.	.	.	16a/	.	16eee-\	.
.	.	.	.	16cc/JJ	.	16ccc\JJ)	.
=224	=224	=224	=224	=224	=224	=224	=224
8FF/	.	8c/L] 8e-/]	.	8ee-\)	.	8aa\L	.
8r	.	16r	.	8r	.	16r	.
.	.	16F/L	.	.	.	(16f\L	.
8r	.	16A/	.	8r	.	16ee-\	.
.	.	16c/JJ	.	.	.	16cc\JJ)	.
=225	=225	=225	=225	=225	=225	=225	=225
8r	.	8e-\L	.	8r	.	8a\L	.
16r	.	16r	.	16r	.	16r	.
16FF/LL	.	16c\L	pp	16e-/LL	pp	(16f\L	pp
16AA/	.	16c\	.	16e-/	.	16ee-\	.
16C/JJ	.	16c\JJ	.	16e-/JJ	.	16cc\JJ)	.
=226	=226	=226	=226	=226	=226	=226	=226
[4.F\	.	[4.c\	.	[4.e-/	.	[4.a/	.
=227	=227	=227	=227	=227	=227	=227	=227
8.F\]	.	8.c\]	.	8.e-/]	.	8.a/L]	.
16r	.	16r	.	16r	.	16f/L	.
8r	.	8r	.	8r	.	16dd/	.
.	.	.	.	.	.	16cc/JJ	.
=228	=228	=228	=228	=228	=228	=228	=228
4.B-\	.	4.f\	.	4.d/	.	16b-\LL	.
.	.	.	.	.	.	16a\	.
.	.	.	.	.	.	16b-\	.
.	.	.	.	.	.	16cc\	.
.	.	.	.	.	.	16dd\	.
.	.	.	.	.	.	16ee-\JJ	.
=229	=229	=229	=229	=229	=229	=229	=229
8.B-\	.	8.f\	.	8.e-/	.	8.cc\	.
16r	.	16r	.	16r	.	16f\LL	.
8r	.	8r	.	8r	.	16ee-\	.
.	.	.	.	.	.	16dd\JJ	.
=230	=230	=230	=230	=230	=230	=230	=230
4.A\	.	4.f\	.	4.c/ 4.e-/	.	16cc\LL	.
.	.	.	.	.	.	16bn\	.
.	.	.	.	.	.	16cc\	.
.	.	.	.	.	.	16dd\	.
.	.	.	.	.	.	16ee-\	.
.	.	.	.	.	.	16ff\JJ	.
=231	=231	=231	=231	=231	=231	=231	=231
8.B-\	.	8.f\	.	8.d/	.	8.dd\	.
16r	.	16r	.	16r	.	16f/LL	p
8r	.	8r	.	8r	.	16dd/	.
.	.	.	.	.	.	16cc/JJ	.
=232	=232	=232	=232	=232	=232	=232	=232
4.r	.	4F/	p	4B-/ 4d/	p	16b-\LL	.
.	.	.	.	.	.	16a\	.
.	.	.	.	.	.	16b-\	.
.	.	.	.	.	.	16cc\	.
.	.	8r	.	8r	.	16dd\	.
.	.	.	.	.	.	16ee-\JJ	.
=233	=233	=233	=233	=233	=233	=233	=233
4.r	.	4F/	.	4c/ 4e-/	.	16cc\LL	.
.	.	.	.	.	.	16bn\	.
.	.	.	.	.	.	16cc\	.
.	.	.	.	.	.	16f\	.
.	.	8r	.	8r	.	16ee-\	.
.	.	.	.	.	.	16dd\JJ	.
=234	=234	=234	=234	=234	=234	=234	=234
4.r	.	4F/	.	4c/ 4e-/	.	16cc\LL	.
.	.	.	.	.	.	16bn\	.
.	.	.	.	.	.	16cc\	.
.	.	.	.	.	.	16dd\	.
.	.	8r	.	8r	.	16ee-\	.
.	.	.	.	.	.	16ff\JJ	.
=235	=235	=235	=235	=235	=235	=235	=235
4.r	.	4d\	.	4B-/ 4f/	.	16dd\LL	.
.	.	.	.	.	.	16cc#\	.
.	.	.	.	.	.	16dd\	.
.	.	.	.	.	.	16b-\	.
.	.	8r	.	8r	.	16ff\	.
.	.	.	.	.	.	16ee-\JJ	.
=236	=236	=236	=236	=236	=236	=236	=236
4.r	.	4.A-/	<	4.a-/	<	16dd\LL	<
.	.	.	.	.	.	16cc#\	<
.	.	.	.	.	.	16dd\	.
.	.	.	.	.	.	16b-\	.
.	.	.	.	.	.	16cc\	.
.	.	.	.	.	.	16dd\JJ	.
=237	=237	=237	=237	=237	=237	=237	=237
4.r	.	8G/L	.	8g/L	<	16ee-\LL	.
.	.	.	.	.	.	16dd\	.
.	.	8F/	.	8f/	.	16ee-\	.
.	.	.	.	.	.	16ff\	.
.	.	8E-/J	.	8e-/J	.	16gg\	.
.	.	.	.	.	.	16aa\JJ	.
=238	=238	=238	=238	=238	=238	=238	=238
4.r	.	8D/L	.	8d/L	.	16bb-\LL	.
.	.	.	.	.	.	16ddd\	.
.	.	8E-/	.	8e-/	.	16ccc\	.
.	.	.	.	.	.	16bb-\	.
.	.	8En/J	.	8en/J	.	16aa\	.
.	.	.	.	.	.	16gg\JJ	.
=239	=239	=239	=239	=239	=239	=239	=239
4.r	.	8F/L	.	8f/L	.	16ff\LL	.
.	.	.	.	.	.	16gg\	.
.	.	8G/	.	8g/	.	16ff\	.
.	.	.	.	.	.	16ee-\	.
.	.	8A/J	.	8a/J	.	16dd\	.
.	.	.	.	.	.	16cc\JJ	.
=240	=240	=240	=240	=240	=240	=240	=240
4.r	.	4B-/	.	(4b-\	.	16dd\LL	.
.	.	.	.	.	.	16cc#\	.
.	.	.	.	.	.	16dd\	.
.	.	.	.	.	.	16b-\	.
.	.	8A-/	.	8a-/)	.	16cc\	.
.	.	.	.	.	.	16dd\JJ	.
=241	=241	=241	=241	=241	=241	=241	=241
4.r	.	8G/L	.	8g/L	.	16ee-\LL	.
.	.	.	.	.	.	16dd\	.
.	.	8F/	.	8f/	.	16ee-\	.
.	.	.	.	.	.	16ff\	.
.	.	8E-/J	.	8e-/J	.	16gg\	.
.	.	.	.	.	.	16aa\JJ	.
=242	=242	=242	=242	=242	=242	=242	=242
4.r	.	8D/L	.	8d/L	.	16bb-\LL	.
.	.	.	.	.	.	16ddd\	.
.	.	8E-/	.	8e-/	.	16ccc\	.
.	.	.	.	.	.	16bb-\	.
.	.	8En/J	.	8en/J	.	16aa\	.
.	.	.	.	.	.	16gg\JJ	.
=243	=243	=243	=243	=243	=243	=243	=243
4.r	.	8F/L	.	8f/L	.	16ff\LL	.
.	.	.	.	.	.	16gg\	.
.	.	8G/	.	8g/	.	16ff\	.
.	.	.	.	.	.	16ee-\	.
.	.	8A/J	.	8a/J	.	16dd\	.
.	.	.	.	.	.	16cc\JJ	.
=244	=244	=244	=244	=244	=244	=244	=244
4BB-/	f	4B-/	f	(4b-\	f	16dd\LL	.
.	.	.	.	.	.	16cc#\	.
.	.	.	.	.	.	16dd\	.
.	.	.	.	.	.	16b-\	.
8AA-/	.	8A-/	.	8a-/)	.	16cc\	.
.	.	.	.	.	.	16dd\JJ	.
=245	=245	=245	=245	=245	=245	=245	=245
8GG/L	.	8G/L	.	8g/L	.	16ee-\LL	.
.	.	.	.	.	.	16dd\	.
8FF/	.	8F/	.	8f/	.	16ee-\	.
.	.	.	.	.	.	16ff\	.
8EE-/J	.	8E-/J	.	8e-/J	.	16gg\	.
.	.	.	.	.	.	16aa\JJ	.
=246	=246	=246	=246	=246	=246	=246	=246
8DD/L	.	8D/L	.	8d/L	.	16bb-\LL	.
.	.	.	.	.	.	16ddd\	.
8EE-/	.	8E-/	.	8e-/	.	16ccc\	.
.	.	.	.	.	.	16bb-\	.
8EEn/J	.	8En/J	.	8en/J	.	16aa\	.
.	.	.	.	.	.	16gg\JJ	.
=247	=247	=247	=247	=247	=247	=247	=247
8FF/L	.	8F/L	.	8f/L	.	16ff\LL	.
.	.	.	.	.	.	16gg\	.
8GG/	.	8G/	.	8g/	.	16ff\	.
.	.	.	.	.	.	16ee-\	.
8AA/J	.	8A/J	.	8a/J	.	16dd\	.
.	.	.	.	.	.	16cc\JJ	.
=248	=248	=248	=248	=248	=248	=248	=248
16BB-\LL	ff	16B-/LL	ff	16b-\LL	ff	16b-\LL	ff
16d\	.	16d/	.	16dd\	.	16dd\	.
16c\	.	16c/	.	16cc\	.	16cc\	.
16B-\	.	16B-/	.	16b-\	.	16b-\	.
16A\	.	16A/	.	16a\	.	16a\	.
16G\JJ	.	16G/JJ	.	16g\JJ	.	16g\JJ	.
=249	=249	=249	=249	=249	=249	=249	=249
16F\LL	.	16F\LL	.	16f/LL	.	16f/LL	.
16G\	.	16g\	.	16g/	.	16g/	.
16F\	.	16f\	.	16f/	.	16f/	.
16E-\	.	16e-\	.	16e-/	.	16e-/	.
16D\	.	16d\	.	16d/	.	16d/	.
16C\JJ	.	16c\JJ	.	16c/JJ	.	16c/JJ	.
=250	=250	=250	=250	=250	=250	=250	=250
8BB-/	.	8B-/	.	8B-/	.	8B-/	.
8r	.	8r	.	8r	.	8r	.
8r	.	8r	.	8r	.	8r	.
=251	=251	=251	=251	=251	=251	=251	=251
8FF/	.	8F/	.	8f\ 8ee-\	.	8f\ 8cc\ 8aa\	.
8r	.	8r	.	8r	.	8r	.
8r	.	8r	.	8r	.	8r	.
=252	=252	=252	=252	=252	=252	=252	=252
8BB-/	.	8B-/	.	8B-/ 8f/ 8dd/	.	8d\ 8b-\ 8bb-\	.
16r	.	16r	.	16r	.	16r	.
==	==	==	==	==	==	==	==
*-	*-	*-	*-	*-	*-	*-	*-
!!!ENC: Craig Stuart Sapp
!!!END: 2006/02/13/
